assets/svgs/i-trash.svg

<svg xmlns="http://www.w3.org/2000/svg" xmlns:xlink="http://www.w3.org/1999/xlink" fill="none" version="1.1" width="16" height="24" viewBox="0 0 16 24"><g><g><g><g><path d="M11.5,8.399999618530273C11.223828,8.399999618530273,11,8.657027618530273,11,8.974162618530274C11,8.974162618530274,11,19.825799618530276,11,19.825799618530276C11,20.142799618530276,11.223828,20.399999618530273,11.5,20.399999618530273C11.776172,20.399999618530273,12,20.142799618530276,12,19.825799618530276C12,19.825799618530276,12,8.974162618530274,12,8.974162618530274C12,8.657027618530273,11.776172,8.399999618530273,11.5,8.399999618530273Z" fill="#727C8E" fill-opacity="1"/></g><g><path d="M4.5,8.399999618530273C4.223828,8.399999618530273,4,8.657027618530273,4,8.974162618530274C4,8.974162618530274,4,19.825799618530276,4,19.825799618530276C4,20.142799618530276,4.223828,20.399999618530273,4.5,20.399999618530273C4.776172,20.399999618530273,5,20.142799618530276,5,19.825799618530276C5,19.825799618530276,5,8.974162618530274,5,8.974162618530274C5,8.657027618530273,4.776172,8.399999618530273,4.5,8.399999618530273Z" fill="#727C8E" fill-opacity="1"/></g><g><path d="M1.31033,20.9929L1.31033,7.14501C0.454836,6.86837,-0.0995129,5.8615,0.0149251,4.79205C0.129543,3.72283,0.877266,2.92299,1.76249,2.92277L4.1246,2.92277L4.1246,2.2202C4.1219,1.62938,4.31365,1.06205,4.65697,0.644683C5.00028,0.227531,5.46668,-0.00475633,5.95165,0.0000738497L10.0484,0.0000738497C10.5333,-0.00475633,10.9997,0.227531,11.343,0.644683C11.6863,1.06205,11.8781,1.62938,11.8754,2.2202L11.8754,2.92277L14.2375,2.92277C15.1227,2.92299,15.8705,3.72283,15.9851,4.79205C16.0995,5.8615,15.5452,6.86837,14.6897,7.14501L14.6897,20.9929C14.6897,21.8114,14.4433,22.5801,14.013,23.1316C13.5848,23.6846,12.9886,23.9986,12.3645,23.9999L3.63549,23.9999C3.01158,23.9986,2.41542,23.6846,1.98704,23.1316C1.55669,22.5801,1.31033,21.8114,1.31033,20.9929ZM5.04744,2.22032C5.04437,1.92765,5.13881,1.64597,5.30929,1.43937C5.4796,1.23277,5.71136,1.11926,5.95177,1.12431L10.0485,1.12431C10.2889,1.11926,10.5206,1.23277,10.6909,1.43937C10.8614,1.64575,10.9559,1.92765,10.9528,2.22032L10.9528,2.92289L5.04744,2.92289L5.04744,2.22032ZM14.2376,4.047L1.76257,4.047C1.30392,4.047,0.932129,4.49994,0.932129,5.0587C0.932129,5.61747,1.30392,6.0704,1.76257,6.0704L14.2376,6.0704C14.6962,6.0704,15.068,5.61747,15.068,5.0587C15.068,4.49994,14.6962,4.047,14.2376,4.047ZM3.63561,22.8759L12.3646,22.8759C13.1534,22.8759,13.7671,22.0503,13.7671,20.993L13.7671,7.19446L2.23315,7.19446L2.23315,20.993C2.23315,22.0503,2.84679,22.8759,3.63561,22.8759Z" fill-rule="evenodd" fill="#727C8E" fill-opacity="1"/></g><g><path d="M8.5,8.399999618530273C8.223828,8.399999618530273,8,8.657027618530273,8,8.974162618530274C8,8.974162618530274,8,19.825799618530276,8,19.825799618530276C8,20.142799618530276,8.223828,20.399999618530273,8.5,20.399999618530273C8.776172,20.399999618530273,9,20.142799618530276,9,19.825799618530276C9,19.825799618530276,9,8.974162618530274,9,8.974162618530274C9,8.657027618530273,8.776172,8.399999618530273,8.5,8.399999618530273Z" fill="#727C8E" fill-opacity="1"/></g></g></g></g></svg>

<svg fill="none" height="24" viewBox="0 0 16 24" width="16" xmlns="http://www.w3.org/2000/svg"><g fill="#727c8e"><path d="m11.5 8.40002c-.2762 0-.5.25703-.5.57417v10.85171c0 .3169.2238.5741.5.5741s.5-.2572.5-.5741v-10.85171c0-.31714-.2238-.57417-.5-.57417z"/><path d="m4.5 8.40002c-.27617 0-.5.25703-.5.57417v10.85171c0 .3169.22383.5741.5.5741s.5-.2572.5-.5741v-10.85171c0-.31714-.22383-.57417-.5-.57417z"/><path clip-rule="evenodd" d="m1.31033 20.993v-13.84793c-.855494-.27664-1.4098429-1.28351-1.2954049-2.35296.1146179-1.06922.8623409-1.86906 1.7475649-1.86928h2.36211v-.70257c-.0027-.59082.18905-1.15815.53237-1.575517.34331-.417152.80971-.64943964 1.29468-.64460946h4.09675c.4849-.00483018.9513.22745746 1.2946.64460946.3433.417367.5351.984697.5324 1.575517v.70257h2.3621c.8852.00022 1.633.80006 1.7476 1.86928.1144 1.06945-.4399 2.07632-1.2954 2.35296v13.84793c0 .8185-.2464 1.5871-.6767 2.1387-.4282.553-1.0244.867-1.6485.8683h-8.72901c-.62391-.0013-1.22007-.3153-1.64845-.8683-.43035-.5516-.67671-1.3202-.67671-2.1387zm2.32516 1.8829h8.72901c.7888 0 1.4025-.8255 1.4025-1.8829v-13.79853h-11.53396v13.79853c0 1.0574.61364 1.8829 1.40245 1.8829zm1.41183-20.65562c-.00307-.29267.09137-.57436.26185-.78096.17031-.2066.40207-.32011.64248-.31506h4.09675c.2404-.00505.4721.10846.6424.31506.1705.20638.2649.48829.2619.78096v.70257h-5.90538zm9.19018 1.82667h-12.47501c-.45865 0-.830438.45294-.830438 1.01171 0 .55876.371788 1.0117.830438 1.0117h12.47501c.4587 0 .8304-.45294.8304-1.0117 0-.55877-.3717-1.01171-.8304-1.01171z" fill-rule="evenodd"/><path d="m8.5 8.40002c-.27617 0-.5.25703-.5.57417v10.85171c0 .3169.22383.5741.5.5741s.5-.2572.5-.5741v-10.85171c0-.31714-.22383-.57417-.5-.57417z"/></g></svg>
